X:433
T:Violet Tulloch's Welcome To The Crask of Aigas 
C:Joe Buchanan's Scottish Tome - Page 409.0
I:409 0
C:Phil Cunningham
R:March
Z:Carl Allison
L:1/8
M:C
K:D
"A7"a>g | "D"f<ag>f "G"e>dB<e | "Em"d>BA<G "A"(e2 e)>f | "G"g<B"A"c>B "D"A<d"G"B>G | "A"F2 E2 E2 "D"a>g |
"D"f<ag>f "G"e>dB<e | "Em"d>BA<G "A"(e2 e)>f | "G"g>B"A"c>B "D"A<d"G"B>G | "A"FGGE :1"D"D2 :|2 "D"(3DED |]
"E7"CB, | "A"A,>A,A,>E C<EE>F | "A"A>Bc<A (e2 e)>f | "G"g>B"A"c>B "D"A<d"G"B>G | "A"F2 E2 E>DC>B, |
"A"A,>A,A,>E C<EE>F | "A"A>Bc<A (e2 e)>f | "G"g>B"A"c>B "D"A<d"G"B>G | "A7"F>AG>E "D"D2 "E7"C>B, |
"A"A,>A,A,>E C<EE>F | "A"A>Bc<A (e2 e)>f | "G"g>B"A"c>B "D"A<d"G"B>G | "A"F2 E2 E2 a>g |
"D"f<ag>f "G"e>dB>e | "Em"d>BA<G (e2 e)>f | "G"g>B"A"c>B "D"A<d"G"B>G | "A7"F<AG>E "D"D2 |]

